X:31
T:Bonnie Dundee
M:6/8
L:1/8
K:A
c/2d/2|"A"efe "A7"ece|"D"agf "A"e2d|"A"ceA "F#m"ceE|"Bm"BcB "E"Bcd|
"A"efe "A7"ece|"D"agf "A"e2d|"A"ceA "F#m"ceE|"D"ABA "A" A2:|
|:E|"A"ABA "D"Adc|"G"BGE E2 E|"E"BcB Bcd|"A"cAc c2A|
"A"cBc "Bm"dcd|"A"ede "D"fed|"A"ceA "E"ceE|"D"ABA "A"A2:||
